packages/icons/general/TwitterColored.svg

<svg width="24" height="24" viewBox="0 0 24 24" xmlns="http://www.w3.org/2000/svg">
<g>
        <path
            d="M20.661 6.68799C21.5575 6.15208 22.2282 5.30823 22.548 4.31399C21.7057 4.81379 20.7841 5.16587 19.823 5.35499C18.4906 3.94552 16.3795 3.60251 14.6694 4.51764C12.9593 5.43277 12.0735 7.37948 12.507 9.26999C9.05664 9.09676 5.842 7.4669 3.66303 4.78599C2.52587 6.74741 3.10698 9.25477 4.99103 10.516C4.30974 10.4941 3.64356 10.3096 3.04803 9.97799C3.04803 9.99599 3.04803 10.014 3.04803 10.032C3.04843 12.0751 4.4884 13.8351 6.49103 14.24C5.8591 14.4119 5.19624 14.4372 4.55303 14.314C5.11623 16.0613 6.72658 17.2583 8.56203 17.294C7.04186 18.4871 5.16451 19.1342 3.23203 19.131C2.8895 19.1315 2.54724 19.1118 2.20703 19.072C4.16942 20.333 6.4534 21.0023 8.78603 21C12.0313 21.0223 15.1501 19.7429 17.4448 17.448C19.7395 15.1531 21.0186 12.0342 20.996 8.78899C20.996 8.60299 20.9917 8.41799 20.983 8.23399C21.8235 7.62659 22.5488 6.87414 23.125 6.01199C22.342 6.35905 21.5115 6.58691 20.661 6.68799Z"
            fill="#2CA4EF"
        />
    </g>
</svg>

<svg xmlns="http://www.w3.org/2000/svg" width="24" height="24">
    <path fill="#2CA4EF" d="M20.661 6.688a4.3 4.3 0 0 0 1.887-2.374 8.59 8.59 0 0 1-2.725 1.041 4.3 4.3 0 0 0-7.316 3.915 12.184 12.184 0 0 1-8.844-4.484 4.3 4.3 0 0 0 1.328 5.73 4.276 4.276 0 0 1-1.943-.538v.054a4.294 4.294 0 0 0 3.443 4.208 4.3 4.3 0 0 1-1.938.074 4.3 4.3 0 0 0 4.009 2.98 8.61 8.61 0 0 1-5.33 1.837c-.343 0-.685-.02-1.025-.059A12.148 12.148 0 0 0 8.786 21a12.127 12.127 0 0 0 12.21-12.211c0-.186-.004-.371-.013-.555a8.718 8.718 0 0 0 2.142-2.222 8.58 8.58 0 0 1-2.464.676Z"/>
</svg>
